!!!!SEGMENT: pl-kk--kk-i-368--002_anonim--exultet-orbis-laudys.krn
!!!cenid: 17xx:1970
!!!COM: Anonim
!!!COM-rismid: pe30004985
!!!CDT:
!!!CNT:
!!!OTL: Exultet orbis Laudys
!!!PDT:
!!!AGN: Sacred
!!!SMS-siglum: PL-Kk
!!!SMS-shelfmark: Kk.I.368
!!!SMS-shelfwork: 002 W
!!!SMS-variant:
!!!SMS-altvar:
!!!NIFC-rismid: 1001144504
!!!URL-scan: http://repozytorium.nifc.pl/skany/pl-kk-nut--i-368
!!!ONB-nifc: UWAGA: utwory w zbiorze: 1. Aeterna Christi minera, 2. Exultet orbis Laudys
**kern	**fba	**text	**text	**text	**text	**text	**text	**dynam	**kern	**text	**text	**text	**text	**text	**text	**dynam	**kern	**text	**text	**text	**text	**text	**text	**dynam	**kern	**text	**text	**text	**text	**text	**text
*part4	*part4	*part4	*part4	*part4	*part4	*part4	*part4	*part4	*part3	*part3	*part3	*part3	*part3	*part3	*part3	*part3	*part2	*part2	*part2	*part2	*part2	*part2	*part2	*part2	*part1	*part1	*part1	*part1	*part1	*part1	*part1
*staff4	*	*staff4	*staff4	*staff4	*staff4	*staff4	*staff4	*	*staff3	*staff3	*staff3	*staff3	*staff3	*staff3	*staff3	*	*staff2	*staff2	*staff2	*staff2	*staff2	*staff2	*staff2	*	*staff1	*staff1	*staff1	*staff1	*staff1	*staff1	*staff1
*Ibass	*	*	*	*	*	*	*	*	*Itenor	*	*	*	*	*	*	*	*Ialto	*	*	*	*	*	*	*	*Ivox	*	*	*	*	*	*
*I"Basso	*	*	*	*	*	*	*	*	*I"Tenore	*	*	*	*	*	*	*	*I"Alto	*	*	*	*	*	*	*	*I"Canto	*	*	*	*	*	*
*clefF4	*	*	*	*	*	*	*	*	*clefC4	*	*	*	*	*	*	*	*clefC3	*	*	*	*	*	*	*	*clefC1	*	*	*	*	*	*
*k[]	*	*	*	*	*	*	*	*	*k[]	*	*	*	*	*	*	*	*k[]	*	*	*	*	*	*	*	*k[]	*	*	*	*	*	*
*a:	*	*	*	*	*	*	*	*	*a:	*	*	*	*	*	*	*	*a:	*	*	*	*	*	*	*	*a:	*	*	*	*	*	*
*M3/1	*	*	*	*	*	*	*	*	*M3/1	*	*	*	*	*	*	*	*M3/1	*	*	*	*	*	*	*	*M3/1	*	*	*	*	*	*
*	*	*	*	*	*	*	*	*	*	*	*	*	*	*	*	*	*	*	*	*	*	*	*	*below	*	*	*	*	*	*	*
=1	=1	=1	=1	=1	=1	=1	=1	=1	=1	=1	=1	=1	=1	=1	=1	=1	=1	=1	=1	=1	=1	=1	=1	=1	=1	=1	=1	=1	=1	=1	=1
!	!	!	!	!	!	!	!	!	!	!	!	!	!	!	!	!	!LO:TX:t=P:problem:od czwartej zwrotki zapisane powtórnie od początku nuty w tej partii	!	!	!	!	!	!	!	!	!	!	!	!	!	!
1A\	.	1 E-	2 Voſ	3 Qui	4 Prae-	5 Ut	6 Pat-	.	1c\	1 E-	2 Voſ	3 Qui	4 Prae-	5 Ut	6 Pat-	.	1e\	1 E-	2 Vos	3 Qui	4 Prae-	5 Ut	6 Pat-	.	1a\	1 E-	2 Vos	3 Qui	4 Prae-	5 Ut	6 Pat-
1G#X\	6	-xul-	ſae-	tem-	-cep-	cum	-ri	.	1B\	-xul-	ſae-	tem-	-cep-	cum	-ri	.	1e\	-xul-	ſae-	tem-	-cep-	cum	-ri	.	1b\	-xul-	ſe-	tem-	-cep-	cum	-ri
1A\	.	-tet	-cu-	-pla	-ta	re-	ſi-	.	1A\	-tet	-cu-	-pla	-ta	re-	ſi-	.	1e\	-tet	-cu-	-pla	-ta	re-	ſi-	.	1cc#X\	-tet	-cu-	-pla	-ta	re-	ſi-
=2	=2	=2	=2	=2	=2	=2	=2	=2	=2	=2	=2	=2	=2	=2	=2	=2	=2	=2	=2	=2	=2	=2	=2	=2	=2	=2	=2	=2	=2	=2	=2
0D\	.	or-	-lo-	cae-	quo-	-di-	-mul-	.	0A\	or-	-lo-	cae-	quo-	-di-	-mul-	.	0f\	or-	-lo-	cae-	quo-	-di-	-mul-	.	0dd\	or-	-lo-	cae-	quo-	-di-	-mul-
1AA/	.	-bis	-rum	-li	-rum	-bit	-q(ue)	.	1A\	-bis	-rum	-li	-rum	-bit	-q(ue)	.	1e\	-bis	-rum	-li	-rum	-bit	-q(ue)	.	1cc\	-bis	-rum	-li	-rum	-bit	-que
=3	=3	=3	=3	=3	=3	=3	=3	=3	=3	=3	=3	=3	=3	=3	=3	=3	=3	=3	=3	=3	=3	=3	=3	=3	=3	=3	=3	=3	=3	=3	=3
1.E\	#	gau-	iu-	clau-	pro-	ar-	fi-	.	1.G#X/	gau-	iu-	clau-	pro-	ar-	fi-	.	1.e\	gau-	iu-	clau-	pro-	ar-	fi-	.	1.b\	gau-	iu-	clau-	pro-	ar-	fi-
*2\right	*	*	*	*	*	*	*	*	*	*	*	*	*	*	*	*	*2\right	*	*	*	*	*	*	*	*2\right	*	*	*	*	*	*
2E\	.	-di-	-di-	-di-	-ti-	-bi-	-li-	.	2G#/	-di-	-di-	-di-	-ti-	-bi-	-li-	.	2e\	-di-	-di-	-di-	-ti-	-bi-	-li-	.	2b\	-di-	-di-	-di-	-ti-	-bi-	-li-
1E\,<	.	-is,	-ces,	-tis,	-nus,	-ter,	-o,	.	1G#/,<	-is,	-ces,	-tis,	-nus,	-ter,	-o,	.	1e\,<	-is,	-ces,	-tis,	-nus,	-ter,	-o,	.	1b\,<	-iſ,	-ces,	-tis,	-nus,	-ter,	-o,
=4	=4	=4	=4	=4	=4	=4	=4	=4	=4	=4	=4	=4	=4	=4	=4	=4	=4	=4	=4	=4	=4	=4	=4	=4	=4	=4	=4	=4	=4	=4	=4
*	*	*	*	*	*	*	*	*	*2\right	*	*	*	*	*	*	*	*	*	*	*	*	*	*	*	*	*	*	*	*	*	*
1C/	.	cae-	et	ſe-	lan-	in	ti-	.	(2c\	cae-	et	ſe-	lan-	in	ti-	.	1g\	cae-	et	ſe-	lan-	in	ti-	.	2ee\	cae-	et	ſe-	lan-	in	ti-
.	.	.	.	.	.	.	.	.	2B\)	.	.	.	.	.	.	.	.	.	.	.	.	.	.	.	2dd\	.	.	.	.	.	.
1C/	.	-lum	ve-	-ras-	-quor	fi-	-bi-	.	(2c\	-lum	ve-	-ras-	-quor	fi-	-bi-	.	1g\	-lum	ve-	-ras-	-quor	fi-	-bi-	.	2ee\	-lum	ve-	-ras-	-quor	fi-	-bi-
.	.	.	.	.	.	.	.	.	2d\)	.	.	.	.	.	.	.	.	.	.	.	.	.	.	.	2ff\	.	.	.	.	.	.
1C/	.	re-	-ra	-que	ſa-	-ne	-q(ue)	.	(2e\	re-	-ra	-q(ue)	ſa-	-ne	-q(ue)	.	1g\	re-	-ra	-que	ſa-	-ne	-q(ue)	.	2gg\	re-	-ra	-que	ſa-	-ne	-q(ue)
.	.	.	.	.	.	.	.	.	2c\)	.	.	.	.	.	.	.	.	.	.	.	.	.	.	.	2ee\	.	.	.	.	.	.
=5	=5	=5	=5	=5	=5	=5	=5	=5	=5	=5	=5	=5	=5	=5	=5	=5	=5	=5	=5	=5	=5	=5	=5	=5	=5	=5	=5	=5	=5	=5	=5
0D\	.	-ſul-	mun-	ver-	-lus-	Chriſ-	ſan-	.	0A\	-ſul-	mun-	ver-	-lus-	Chriſ-	ſan-	.	(2f\	-ſul-	mun-	ver-	-lus-	Chri-	ſan-	.	0ff\	-ſul-	mun-	ver-	-lus-	Chriſ-	ſan-
.	.	.	.	.	.	.	.	.	.	.	.	.	.	.	.	.	2g\)	.	.	.	.	.	.	.	.	.	.	.	.	.	.
.	.	.	.	.	.	.	.	.	.	.	.	.	.	.	.	.	(2a\	.	.	.	.	.	.	.	.	.	.	.	.	.	.
.	.	.	.	.	.	.	.	.	.	.	.	.	.	.	.	.	2f\)	.	.	.	.	.	.	.	.	.	.	.	.	.	.
1E\	6	-tet	-di	-bo	-q(ue)	-tus	-cte	.	1c\	-tet	-di	-bo	-q(ue)	-tus	-cte	.	1g\	-tet	-di	-bo	-q(ue)	-ſtus	-cte	.	1ee\	-tet	-di	-bo	-q(ue)	-tus	-cte
=6	=6	=6	=6	=6	=6	=6	=6	=6	=6	=6	=6	=6	=6	=6	=6	=6	=6	=6	=6	=6	=6	=6	=6	=6	=6	=6	=6	=6	=6	=6	=6
1.G\	.	lau-	lu-	ſo-	ſen-	ſae-	ſpi-	.	1.B\	lau-	lu-	ſo-	sen-	ſae-	ſpi-	.	1.g\	gau-	lu-	ſol-	sen-	ſae-	ſpi-	.	1.dd\	lau-	lu-	ſo-	sen-	ſae-	ſpi-
2G\	.	-di	-mi-	-lu-	-ti-	-cu-	-ri-	.	2B\	-di	-mi-	-lu-	-ti-	-cu-	-ri-	.	2g\	-di-	-mi-	-vi-	-ti-	-cu-	-ri-	.	2dd\	-di	-mi-	-lu-	-ti-	-cu-	-ri-
1G\,	.	-bus,	-na,	-tis,	-unt,	-li,	-tus,	.	1B\,<	-bus,	-na,	-tis,	-unt,	-li,	-tus,	.	1g\,<	-is,	-na,	-tis,	-unt,	-li,	-tus,	.	1dd\,<	-bus,	-na,	-tis,	-unt,	-li,	-tus,
=7	=7	=7	=7	=7	=7	=7	=7	=7	=7	=7	=7	=7	=7	=7	=7	=7	=7	=7	=7	=7	=7	=7	=7	=7	=7	=7	=7	=7	=7	=7	=7
!LO:TX:t=P:problem:dźwięki niewidoczne	!	!	!	!	!	!	!	!	!	!	!	!	!	!	!	!	!	!	!	!	!	!	!	!	!	!	!	!	!	!	!
1ryy	.	A-	vo-	nos	ſa-	nos	ſi-	.	1B\	A-	vo-	nos	ſa-	nos	ſi-	p	1g\	A-	vo-	nos	ſa-	nos	ſi-	p	1dd\	A-	vo-	nos	ſa-	nos	ſi-
1ryy	.	-po-	-tis	ã	-na-	ſem-	-cut	.	1B\	-po-	-tis	ã	-na-	ſem-	-cut	.	1g\	-po-	-tis	ã	-na-	ſem-	-cut	.	1dd\	-po-	-tis	ã	-na-	ſem-	-cut
1F\	.	-ſto-	pre-	re-	-te	-pi-	fu-	.	1A\	-ſto-	pre-	re-	-te	-pi-	fu-	.	1a\	-ſto-	pre-	re-	-te	-pi-	fu-	.	1dd\	-ſto-	pre-	re-	-te	-pi-	fu-
=8	=8	=8	=8	=8	=8	=8	=8	=8	=8	=8	=8	=8	=8	=8	=8	=8	=8	=8	=8	=8	=8	=8	=8	=8	=8	=8	=8	=8	=8	=8	=8
0G\	.	-lo-	-ca-	-a-	men-	-ter-	-it	.	0B\	-lo-	-ca-	-a-	men-	-ter-	-it	.	0g\	-lo-	-ca-	-a-	men-	-ter-	-it	.	0dd\	-lo-	-ca-	-a-	men-	-ter-	-it
1E\	6\	-rum	-mur	-tu	-tes	-ni	ſit	.	1G/	-rum	-mur	-tu	-tes	-ni	ſit	.	1g\	-rum	-mur	-tu	-tes	-ni	ſit	.	1cc#X\	-rum	-mur	-tu	-tes	-ni	ſit
=9	=9	=9	=9	=9	=9	=9	=9	=9	=9	=9	=9	=9	=9	=9	=9	=9	=9	=9	=9	=9	=9	=9	=9	=9	=9	=9	=9	=9	=9	=9	=9
1.D\	.	glo-	cor-	no-	lan-	gau-	iu-	.	1.A\	glo-	cor-	no-	lan-	gau-	iu-	.	1.f#X\	glo-	cor-	no-	lan-	gau-	iu-	.	1.dd\	glo-	cor-	no-	lan-	gau-	iu-
2D/	.	-ri-	-di-	-xi-	-gui-	-di-	-gi-	.	2A/	-ri-	-di-	-xi-	-gui-	-di-	-gi-	.	2f#\	-ri-	-di-	-xi-	-gui-	-di-	-gi-	.	2dd\	-ri-	-di-	-xi-	-gui-	-di-	-gi-
1D\,<	.	-am,	-um,	-os,	-das,	-i	-ter	.	1A\,<	-a(m),	-u(m),	-os,	-das,	-i	-ter	.	1f#\,<	-am,	-um,	-os,	-das,	-i	-ter	.	1dd\,<	-am,	-um,	-os,	-das,	-i	-ter
=10	=10	=10	=10	=10	=10	=10	=10	=10	=10	=10	=10	=10	=10	=10	=10	=10	=10	=10	=10	=10	=10	=10	=10	=10	=10	=10	=10	=10	=10	=10	=10
1D\	.	tel-	au-	ſol-	au-	con-	ſae-	.	1d\	tel-	au-	ſol-	au-	con-	ſae-	f	1a\	tel-	au-	ſol-	au-	con-	ſae-	f	1ffn\	tel-	au-	ſol-	au-	con-	ſae-
1D\	.	-lus	-di-	-vi	-ge-	-ce-	-clum	.	1A\	-lus	-di-	-vi	-ge-	-ce-	-clum	.	1a\	-lus	-di-	-vi	-ge-	-ce-	-clum	.	1ff\	-lus	-di-	-vi	-ge-	-ce-	-clum
1E\	6	et	-te	iu-	-te	-dat	per	.	1c\	et	-te	iu-	-te	-dat	per	.	1g\	et	-te	iu-	-te	-dat	per	.	1ee\	et	-te	iu-	-te	-dat	per
=11	=11	=11	=11	=11	=11	=11	=11	=11	=11	=11	=11	=11	=11	=11	=11	=11	=11	=11	=11	=11	=11	=11	=11	=11	=11	=11	=11	=11	=11	=11	=11
0G\	.	aſ-	vo-	-be-	nos	eſ-	om-	.	0B\	Aſ-	vo-	-be-	nos	eſ-	om-	.	0g\	Aſ-	vo-	-be-	nos	eſ-	om-	.	0dd\	Aſ-	vo-	-be-	nos	eſ-	om-
1A\	.	-tra	-ces	-te	vir-	-se	-ne	.	1A\	-tra	-ces	-te	vir-	-se	-ne	.	1e\	-tra	-ces	-te	vir-	-se	-ne	.	1cc\	-tra	-ces	-te	Vir-	-se	-ne
!!pagebreak:original
=12	=12	=12	=12	=12	=12	=12	=12	=12	=12	=12	=12	=12	=12	=12	=12	=12	=12	=12	=12	=12	=12	=12	=12	=12	=12	=12	=12	=12	=12	=12	=12
*lig	*	*	*	*	*	*	*	*	*	*	*	*	*	*	*	*	*lig	*	*	*	*	*	*	*	*	*	*	*	*	*	*
1D\	5 6	con-	sup-	quae-	-tu-	com-	glo-	.	0A\	con-	sup-	quae-	-tu-	com-	glo-	.	1f\	con-	sup-	quae-	-tu-	com-	glo-	.	0b\	con-	sup-	quae-	-tu-	com-	glo-
1.E\	.	.	.	.	.	.	.	.	.	.	.	.	.	.	.	.	1.e\	.	.	.	.	.	.	.	.	.	.	.	.	.	.
*Xlig	*	*	*	*	*	*	*	*	*	*	*	*	*	*	*	*	*Xlig	*	*	*	*	*	*	*	*	*	*	*	*	*	*
.	.	.	.	.	.	.	.	.	1G#X/	-ci-	-pli-	-ſu-	-ti-	-po-	-ri-	.	.	.	.	.	.	.	.	.	1b\	-ci-	-pli-	-ſu-	-ti-	-po-	-ri-
2E\	.	-ci-	-pli-	-ſu-	-ti-	-po-	-ri-	.	.	.	.	.	.	.	.	.	2e\	-ci-	-pli-	-ſu-	-ti-	-po-	-ri-	.	.	.	.	.	.	.	.
=13	=13	=13	=13	=13	=13	=13	=13	=13	=13	=13	=13	=13	=13	=13	=13	=13	=13	=13	=13	=13	=13	=13	=13	=13	=13	=13	=13	=13	=13	=13	=13
0.AA/	.	-nunt,	-cum,	-mus,	-bus,	-tes,	-a.	.	0.A\	-nu(nt).	-cu(m),	-mus,	-b(us).	-tes.	-a.	.	0.e\,<	-nunt,	-cu(m),	-mus,	-b(us),	-tes,	-a.	.	0.a\	-nunt,	-cum,	-mus,	-bus,	-tes,	-a.
=14	=14	=14	=14	=14	=14	=14	=14	=14	=14	=14	=14	=14	=14	=14	=14	=14	=14	=14	=14	=14	=14	=14	=14	=14	=14	=14	=14	=14	=14	=14	=14
1G\	.	A-	Vo-	nos	ſa-	nos	ſi-	p	1B\	A-	.	.	.	.	.	p	1g\	A-	Vo-	nos	.	.	.	p	1dd\	A-	Vo-	nos	.	.	.
1G\	.	-po-	-tis	a	-na-	ſem-	-cut	.	1B\	-po-	.	.	.	.	.	.	1g\	-po-	-tis	a	.	.	.	.	1dd\	-po-	-tis	ã	.	.	.
1F#X\	.	-ſto-	pre-	re-	-te	-pi-	fu-	.	1A\	-ſto-	.	.	.	.	.	.	1a\	-ſto-	pre-	re-	.	.	.	.	1dd\	-ſto-	pre-	re-	.	.	.
=15-	=15	=15	=15	=15	=15	=15	=15	=15	=15	=15	=15	=15	=15	=15	=15	=15	=15	=15	=15	=15	=15	=15	=15	=15	=15	=15	=15	=15	=15	=15	=15
0G\	.	-lo-	-ca-	-a-	men-	-ter-	-it	.	0B\	-lo-	.	.	.	.	.	.	0g\	-lo-	-ca-	-a-	.	.	.	.	0dd\	-lo-	-ca-	-a-	.	.	.
1E\	6\	-ru(m)	-mur	-tu	-tes	-ni	ſit	.	1G/	-rum	.	.	.	.	.	.	1g\	-ru(m)	-mur	-tu	.	.	.	.	1cc#X\	-ru(m)	-mur	-tu	.	.	.
=16	=16	=16	=16	=16	=16	=16	=16	=16	=16	=16	=16	=16	=16	=16	=16	=16	=16	=16	=16	=16	=16	=16	=16	=16	=16	=16	=16	=16	=16	=16	=16
1.D\	.	glo-	cor-	no-	lan-	gai-	iu-	.	1.A\	glo-	.	.	.	.	.	.	1.f#X\	glo-	cor-	no-	.	.	.	.	1.dd\	glo-	cor-	no-	.	.	.
2D/	.	-ri-	-di-	-xi-	-gui-	-di-	-gi-	.	2A/	-ri-	.	.	.	.	.	.	2f#\	-ri-	-di-	-xi-	.	.	.	.	2dd\	-ri-	-di-	-xi-	.	.	.
!LO:LB:g=original	!	!	!	!	!	!	!	!	!	!	!	!	!	!	!	!	!	!	!	!	!	!	!	!	!	!	!	!	!	!	!
1D\,	.	-a	-u(m)	-os	-t(as)	-i	-te.	.	1A\	-a	.	.	.	.	.	.	1f#\,<	-a	-u(m)	-os	.	.	.	.	1dd\	-a	-u(m)	-os	.	.	.
=17	=17	=17	=17	=17	=17	=17	=17	=17	=17	=17	=17	=17	=17	=17	=17	=17	=17	=17	=17	=17	=17	=17	=17	=17	=17	=17	=17	=17	=17	=17	=17
1D\	.	tel-	au-	ſol-	au-	con-	ſae-	.	1d\	tel-	.	.	.	.	.	f	1a\	tel-	au-	ſol-	.	.	.	f	1.ff\	tel-	au-	ſol-	.	.	.
1D\	.	-lus	-di-	-vi	-ge-	-ce-	-clum	.	1A\	-lus	.	.	.	.	.	.	1a\	-lus	-di-	-vi	.	.	.	.	.	.	.	.	.	.	.
.	.	.	.	.	.	.	.	.	.	.	.	.	.	.	.	.	.	.	.	.	.	.	.	.	2ff\	-lus	-di-	-vi	.	.	.
1E\	6	et	-te	iu-	-te	-dat	per	.	1c\	et	.	.	.	.	.	.	1g\	et	-te	iu-	.	.	.	.	1ee\	et	-te	iu-	.	.	.
=18	=18	=18	=18	=18	=18	=18	=18	=18	=18	=18	=18	=18	=18	=18	=18	=18	=18	=18	=18	=18	=18	=18	=18	=18	=18	=18	=18	=18	=18	=18	=18
0G\	.	aſ-	vo-	-be-	nos	eſ-	om-	.	0B\	aſ-	.	.	.	.	.	.	0g\	aſ-	vo-	-be-	.	.	.	.	0dd\	aſ-	vo-	-be-	.	.	.
1A\	.	-tra	-ces	-te	vir-	-se	-ne	.	1A\	-tra	.	.	.	.	.	.	1e\	-tra	-ces	-te	.	.	.	.	1cc\	-tra	-ces	-te	.	.	.
=19	=19	=19	=19	=19	=19	=19	=19	=19	=19	=19	=19	=19	=19	=19	=19	=19	=19	=19	=19	=19	=19	=19	=19	=19	=19	=19	=19	=19	=19	=19	=19
*lig	*	*	*	*	*	*	*	*	*	*	*	*	*	*	*	*	*	*	*	*	*	*	*	*	*	*	*	*	*	*	*
1D\	.	con-	ſup-	quae-	-tu-	com-	glo-	.	0A\	con-	.	.	.	.	.	.	1f\	con-	ſup-	quae-	.	.	.	.	0b\	con-	ſup-	quae-	.	.	.
1.E\	.	.	.	.	.	.	.	.	.	.	.	.	.	.	.	.	1.e\	.	.	.	.	.	.	.	.	.	.	.	.	.	.
*Xlig	*	*	*	*	*	*	*	*	*	*	*	*	*	*	*	*	*	*	*	*	*	*	*	*	*	*	*	*	*	*	*
!	!	!	!	!	!	!	!	!	!LO:TX:a:t=P:problem: # below	!	!	!	!	!	!	!	!	!	!	!	!	!	!	!	!	!	!	!	!	!	!
.	.	.	.	.	.	.	.	.	1G#X/	-ci-	.	.	.	.	.	.	.	.	.	.	.	.	.	.	1b\	-ci-	-pli-	-ſu-	.	.	.
2E\	.	-ci-	-pli-	-ſu-	-ti-	-po-	-ri-	.	.	.	.	.	.	.	.	.	2e\	-ci-	-pli-	-ſu-	.	.	.	.	.	.	.	.	.	.	.
=20	=20	=20	=20	=20	=20	=20	=20	=20	=20	=20	=20	=20	=20	=20	=20	=20	=20	=20	=20	=20	=20	=20	=20	=20	=20	=20	=20	=20	=20	=20	=20
[>0AA/	.	-nunt	-cu(m)	-mus)	-bus	-tes	-a	.	0.A\	-nunt	.	.	.	.	.	.	0.e\	-nunt	-cu(m)	-m(us)	.	.	.	.	0.a\	-nu(nt)	-cu(m)	-mus	.	.	.
!LO:N:vis=0.	!	!	!	!	!	!	!	!	!	!	!	!	!	!	!	!	!	!	!	!	!	!	!	!	!	!	!	!	!	!	!
1AA/]	.	.	.	.	.	.	.	.	.	.	.	.	.	.	.	.	.	.	.	.	.	.	.	.	.	.	.	.	.	.	.
==	==	==	==	==	==	==	==	==	==	==	==	==	==	==	==	==	==	==	==	==	==	==	==	==	==	==	==	==	==	==	==
*-	*-	*-	*-	*-	*-	*-	*-	*-	*-	*-	*-	*-	*-	*-	*-	*-	*-	*-	*-	*-	*-	*-	*-	*-	*-	*-	*-	*-	*-	*-	*-
!!!system-decoration: [(s1,s2,s3,s4)]
!!!RDF**kern: > = above
!!!RDF**kern: < = below
!!!RDF**dynam: p = Piano
!!!RDF**dynam: f = Forte
!!!EED: Leszek Kubiak
!!!EST: 2021-02-24
!!!ENC: Tomasz Grochalski
!!!END: 2021-02-07
